static/lock.svg

<svg width="24" height="24" viewBox="0 0 24 24" fill="none" xmlns="http://www.w3.org/2000/svg">
<path fill-rule="evenodd" clip-rule="evenodd" d="M12 1.5C10.6076 1.5 9.27225 2.05312 8.28769 3.03769C7.30312 4.02226 6.75 5.35761 6.75 6.75V9.75C5.95435 9.75 5.19129 10.0661 4.62868 10.6287C4.06607 11.1913 3.75 11.9544 3.75 12.75V19.5C3.75 20.2956 4.06607 21.0587 4.62868 21.6213C5.19129 22.1839 5.95435 22.5 6.75 22.5H17.25C18.0456 22.5 18.8087 22.1839 19.3713 21.6213C19.9339 21.0587 20.25 20.2956 20.25 19.5V12.75C20.25 11.9544 19.9339 11.1913 19.3713 10.6287C18.8087 10.0661 18.0456 9.75 17.25 9.75V6.75C17.25 3.85 14.9 1.5 12 1.5ZM15.75 9.75V6.75C15.75 5.75544 15.3549 4.80161 14.6517 4.09835C13.9484 3.39509 12.9946 3 12 3C11.0054 3 10.0516 3.39509 9.34835 4.09835C8.64509 4.80161 8.25 5.75544 8.25 6.75V9.75H15.75Z" fill="#6AC4DD"/>
</svg>

<svg xmlns="http://www.w3.org/2000/svg" viewBox="0 0 24 24" fill="#03AEDC" class="w-6 h-6">
    <path fill-rule="evenodd" d="M12 1.5a5.25 5.25 0 00-5.25 5.25v3a3 3 0 00-3 3v6.75a3 3 0 003 3h10.5a3 3 0 003-3v-6.75a3 3 0 00-3-3v-3c0-2.9-2.35-5.25-5.25-5.25zm3.75 8.25v-3a3.75 3.75 0 10-7.5 0v3h7.5z" clip-rule="evenodd" />
  </svg>
